src/components/Icon/assets/star.svg

<svg width="24" height="24" viewBox="0 0 24 24" fill="none" xmlns="http://www.w3.org/2000/svg">
<path fill-rule="evenodd" clip-rule="evenodd" d="M12.002 19.0876L15.7432 21.8056C17.5288 23.1029 19.9308 21.3578 19.2479 19.2591L17.8195 14.8606L21.5607 12.1426C23.3453 10.8447 22.4285 8.02257 20.222 8.02257L15.5974 8.02171L14.168 3.62442C13.4872 1.52506 10.5167 1.52506 9.83573 3.62511L8.40649 8.02171L3.78178 8.02257C1.57541 8.02257 0.658615 10.8447 2.4428 12.1423L6.18448 14.8606L4.75587 19.2597C4.07313 21.3578 6.47511 23.1029 8.26076 21.8056L12.002 19.0876ZM12.5897 17.0426L12.002 16.6155L7.08521 20.1875C6.86707 20.346 6.57471 20.1336 6.65789 19.878L8.31107 14.7875L8.53545 14.0965L3.61873 10.5245C3.40112 10.3663 3.51277 10.0226 3.78197 10.0226L9.13315 10.0216L9.85944 10.0214L11.738 4.24274C11.8212 3.9861 12.1827 3.9861 12.2657 4.24205L13.92 9.33074L14.1445 10.0214L20.2218 10.0226C20.4912 10.0226 20.6028 10.3663 20.3848 10.5248L16.0562 13.6695L15.4685 14.0965L17.3459 19.8775C17.4292 20.1336 17.1369 20.346 16.9188 20.1876L12.5897 17.0426Z" fill="#65676A"/>
</svg>

<svg xmlns="http://www.w3.org/2000/svg" width="24" height="24" viewBox="0 0 24 24">
    <path fill="#65676A" fill-rule="evenodd" d="M12.002 19.088l3.741 2.718c1.786 1.297 4.188-.448 3.505-2.547l-1.429-4.398 3.742-2.718c1.784-1.298.868-4.12-1.339-4.12l-4.625-.001-1.429-4.398c-.68-2.099-3.651-2.099-4.332.001l-1.43 4.397H3.782c-2.207 0-3.123 2.823-1.34 4.12l3.742 2.719-1.428 4.399c-.683 2.098 1.72 3.843 3.505 2.546l3.741-2.718zm.588-2.045l-.588-.427-4.917 3.572c-.218.158-.51-.054-.427-.31l1.653-5.09.224-.691-4.916-3.572c-.218-.159-.106-.502.163-.502l5.351-.001h.726l1.879-5.78c.083-.256.445-.256.528 0l1.654 5.089.224.69 6.078.002c.27 0 .38.343.163.502l-4.329 3.145-.588.427 1.878 5.78c.083.257-.21.469-.427.31l-4.33-3.144z"/>
</svg>
